storage/app/icons/phosphoricons/light/notebook-light.svg

<svg xmlns="http://www.w3.org/2000/svg" fill="currentColor" viewBox="0 0 256 256"><path d="M182 112a6 6 0 0 1-6 6h-64a6 6 0 0 1 0-12h64a6 6 0 0 1 6 6m-6 26h-64a6 6 0 0 0 0 12h64a6 6 0 0 0 0-12m46-90v160a14 14 0 0 1-14 14H48a14 14 0 0 1-14-14V48a14 14 0 0 1 14-14h160a14 14 0 0 1 14 14M48 210h26V46H48a2 2 0 0 0-2 2v160a2 2 0 0 0 2 2M210 48a2 2 0 0 0-2-2H86v164h122a2 2 0 0 0 2-2Z"/></svg>

<svg xmlns="http://www.w3.org/2000/svg" viewBox="0 0 256 256" fill="currentColor"><path d="M182,112a6,6,0,0,1-6,6H112a6,6,0,0,1,0-12h64A6,6,0,0,1,182,112Zm-6,26H112a6,6,0,0,0,0,12h64a6,6,0,0,0,0-12Zm46-90V208a14,14,0,0,1-14,14H48a14,14,0,0,1-14-14V48A14,14,0,0,1,48,34H208A14,14,0,0,1,222,48ZM48,210H74V46H48a2,2,0,0,0-2,2V208A2,2,0,0,0,48,210ZM210,48a2,2,0,0,0-2-2H86V210H208a2,2,0,0,0,2-2Z"/></svg>
